**harm	**harte	**silbe	**silbe	**rhyme	**timestamp	**phrase	**leadinstrument	**kern
*M4/4	*M4/4	*	*	*	*	*	*	*
*	*	*	*	*	*	*	*	*
*	*	*	*	*	*	*	*	*
*C:	*C:	*	*	*	*	*	*	*C:
*	*	*	*	*	*	*	*	*
*	*	*	*	*	*	*	*	*
1r;	N	.	.	.	0	.	r	1r;
=1	=1	=1	=1	=1	=1	=1	=1	=1
*>Letter>A	*>Letter>A	*>Letter>A	*>Letter>A	*>Letter>A	*>Letter>A	*>Letter>A	*>Letter>A	*>Letter>A
*>Label>Intro	*>Label>Intro	*>Label>Intro	*>Label>Intro	*>Label>Intro	*>Label>Intro	*>Label>Intro	*>Label>Intro	*>Label>Intro
*M2/4	*M2/4	*	*	*	*M2/4	*M2/4	*M2/4	*
8.ii7	D:min7	.	.	.	0.232	newline	r	2D 2f 2a 2cc
8.IV7	F:maj7	.	.	.	1.009	.	r	8F 8a 8cc 8ee
8V7	G:7	.	.	.	.	.	r	8G 8b 8dd 8ff
=2	=2	=2	=2	=2	=2	=2	=2	=2
*M4/4	*M4/4	*	*	*	*M4/4	*M4/4	*M4/4	*
1V7	G:7	.	.	.	1.786	.	r	1G 1b 1dd 1ff
=3	=3	=3	=3	=3	=3	=3	=3	=3
*M2/4	*M2/4	*	*	*	*M2/4	*M2/4	*M2/4	*
8.V	G:maj	.	.	.	4.894	.	r	2G 2b 2dd
8.I	C:maj	.	.	.	5.671	.	r	8C 8e 8g
8IV	F:maj	.	.	.	6.448	.	r	8F 8a 8cc
=4	=4	=4	=4	=4	=4	=4	=4	=4
*M4/4	*M4/4	*	*	*	*M4/4	*M4/4	*M4/4	*
1IV	F:maj	.	.	.	.	.	r	1F 1a 1cc
=5	=5	=5	=5	=5	=5	=5	=5	=5
*M2/4	*M2/4	*	*	*	*M2/4	*M2/4	*M2/4	*
8.ii7	D:min7	.	.	.	9.555	newline	r	2D 2f 2a 2cc
8.IV7	F:maj7	.	.	.	10.317	.	r	8F 8a 8cc 8ee
8V7	G:7	.	.	.	.	.	r	8G 8b 8dd 8ff
=6	=6	=6	=6	=6	=6	=6	=6	=6
*M4/4	*M4/4	*	*	*	*M4/4	*M4/4	*M4/4	*
1V7	G:7	.	.	.	11.079	.	r	1G 1b 1dd 1ff
=7	=7	=7	=7	=7	=7	=7	=7	=7
*M2/4	*M2/4	*	*	*	*M2/4	*M2/4	*M2/4	*
8.V	G:maj	.	.	.	14.125	.	r	2G 2b 2dd
8.I	C:maj	.	.	.	14.887	.	r	8C 8e 8g
8IV	F:maj	.	.	.	.	.	r	8F 8a 8cc
=8	=8	=8	=8	=8	=8	=8	=8	=8
*M4/4	*M4/4	*	*	*	*M4/4	*M4/4	*M4/4	*
1IV	F:maj	.	.	.	15.649	.	r	1F 1a 1cc
=9	=9	=9	=9	=9	=9	=9	=9	=9
1Im7	C:7	.	.	.	18.695	newline	r	1C 1e 1g 1b
=10	=10	=10	=10	=10	=10	=10	=10	=10
1Im7	C:7	.	.	.	21.809	.	r	1C 1e 1g 1b
=11	=11	=11	=11	=11	=11	=11	=11	=11
*>Letter>B	*>Letter>B	*>Letter>B	*>Letter>B	*>Letter>B	*>Letter>B	*>Letter>B	*>Letter>B	*>Letter>B
*>Label>Verse	*>Label>Verse	*>Label>Verse	*>Label>Verse	*>Label>Verse	*>Label>Verse	*>Label>Verse	*>Label>Verse	*>Label>Verse
1I	C:maj	.	.	.	24.922	newline	voice	1C 1e 1g
.	.	I	.	.	.	.	.	.
.	.	do	.	.	.	.	.	.
.	.	be-	.	.	.	.	.	.
.	.	-lieve	.	.	.	.	.	.
.	.	_	.	.	.	.	.	.
.	.	in	.	.	.	.	.	.
.	.	you	.	.	.	.	.	.
.	.	_	.	.	.	.	.	.
.	.	.	.	.	.	.	.	.
=12	=12	=12	=12	=12	=12	=12	=12	=12
2-III	E-:maj	and	.	.	28.014	.	voice	2E- 2g 2b-
.	.	I	.	.	.	.	.	.
.	.	_	.	.	.	.	.	.
.	.	know	.	.	.	.	.	.
.	.	_	.	.	.	.	.	.
.	.	you	.	.	.	.	.	.
.	.	be-	.	.	.	.	.	.
.	.	_	.	.	.	.	.	.
.	.	-lieve	.	.	.	.	.	.
2-VII	B-:maj	_	.	.	29.56	.	voice	2B- 2dd 2ff
.	.	_	.	.	.	.	.	.
.	.	in	.	.	.	.	.	.
.	.	_	.	.	.	.	.	.
.	.	me	.	A	.	.	.	.
.	.	_	.	.	.	.	.	.
.	.	_	.	.	.	.	.	.
.	.	_	.	.	.	.	.	.
.	.	.	.	.	.	.	.	.
=13	=13	=13	=13	=13	=13	=13	=13	=13
.	.	_	.	.	.	.	.	.
8-IIIc	E-:maj/5	oh,	.	.	31.106	.	voice	8e- 8g 8B-
4-VII	B-:maj	_	.	.	31.879	.	voice	4B- 4dd 4ff
.	.	_	.	.	.	.	.	.
8%5IV	F:maj	yeah	.	.	32.652	.	voice	3...F 3...a 3...cc
.	.	_	.	.	.	.	.	.
.	.	.	.	.	.	.	.	.
=14	=14	=14	=14	=14	=14	=14	=14	=14
.	.	_	.	.	.	.	.	.
8-IIIc	E-:maj/5	Oh,	.	.	34.198	.	voice	8e- 8g 8B-
4-VII	B-:maj	_	.	.	34.971	.	voice	4B- 4dd 4ff
.	.	_	.	.	.	.	.	.
8%5IV	F:maj	yeah	.	.	35.744	.	voice	3...F 3...a 3...cc
.	.	_	.	.	.	.	.	.
.	.	.	.	.	.	.	.	.
=15	=15	=15	=15	=15	=15	=15	=15	=15
1I	C:maj	.	.	.	37.29	newline	voice	1C 1e 1g
.	.	But	.	.	.	.	.	.
.	.	now	.	.	.	.	.	.
.	.	we	.	.	.	.	.	.
.	.	rea	.	.	.	.	.	.
.	.	_	.	.	.	.	.	.
.	.	lize	.	.	.	.	.	.
.	.	_	.	.	.	.	.	.
.	.	.	.	.	.	.	.	.
=16	=16	=16	=16	=16	=16	=16	=16	=16
2-III	E-:maj	love's	.	.	40.338	.	voice	2E- 2g 2b-
.	.	not	.	.	.	.	.	.
.	.	_	.	.	.	.	.	.
.	.	all	.	.	.	.	.	.
.	.	_	.	.	.	.	.	.
.	.	that	.	.	.	.	.	.
.	.	it's	.	.	.	.	.	.
.	.	_	.	.	.	.	.	.
.	.	s'posed	.	.	.	.	.	.
2-VII	B-:maj	_	.	.	41.862	.	voice	2B- 2dd 2ff
.	.	_	.	.	.	.	.	.
.	.	to	.	.	.	.	.	.
.	.	_	.	.	.	.	.	.
.	.	be	.	A	.	.	.	.
.	.	_	.	.	.	.	.	.
.	.	_	.	.	.	.	.	.
.	.	_	.	.	.	.	.	.
.	.	.	.	.	.	.	.	.
=17	=17	=17	=17	=17	=17	=17	=17	=17
.	.	_	.	.	.	.	.	.
8-IIIc	E-:maj/5	oh,	.	.	43.386	.	voice	8e- 8g 8B-
4-VII	B-:maj	_	.	.	44.148	.	voice	4B- 4dd 4ff
.	.	_	.	.	.	.	.	.
8%5IV	F:maj	yeah	.	.	44.91	.	voice	3...F 3...a 3...cc
.	.	_	.	.	.	.	.	.
.	.	.	.	.	.	.	.	.
=18	=18	=18	=18	=18	=18	=18	=18	=18
.	.	_	.	.	.	.	.	.
8-IIIc	E-:maj/5	Oh,	.	.	46.434	.	voice	8e- 8g 8B-
4-VII	B-:maj	_	.	.	47.196	.	voice	4B- 4dd 4ff
.	.	_	.	.	.	.	.	.
8%5IV	F:maj	yeah	.	.	47.958	.	voice	3...F 3...a 3...cc
.	.	_	.	.	.	.	.	.
.	.	.	.	.	.	.	.	.
=19	=19	=19	=19	=19	=19	=19	=19	=19
*>Letter>C	*>Letter>C	*>Letter>C	*>Letter>C	*>Letter>C	*>Letter>C	*>Letter>C	*>Letter>C	*>Letter>C
*>Label>Chorus	*>Label>Chorus	*>Label>Chorus	*>Label>Chorus	*>Label>Chorus	*>Label>Chorus	*>Label>Chorus	*>Label>Chorus	*>Label>Chorus
1vi7	A:min7	.	.	.	49.482	newline	voice	1A 1cc 1ee 1gg
.	.	And	.	.	.	.	.	.
.	.	kno-	.	.	.	.	.	.
.	.	-wing	.	.	.	.	.	.
.	.	that	.	.	.	.	.	.
.	.	_	.	.	.	.	.	.
.	.	_	.	.	.	.	.	.
.	.	you	.	.	.	.	.	.
.	.	would	.	.	.	.	.	.
.	.	have	.	.	.	.	.	.
=20	=20	=20	=20	=20	=20	=20	=20	=20
1ii7	D:min7	wan-	.	.	52.538	.	voice	1D 1f 1a 1cc
.	.	-ted	.	.	.	.	.	.
.	.	it	.	.	.	.	.	.
.	.	_	.	.	.	.	.	.
.	.	this	.	.	.	.	.	.
.	.	way	.	B	.	.	.	.
.	.	_	.	.	.	.	.	.
.	.	.	.	.	.	.	.	.
=21	=21	=21	=21	=21	=21	=21	=21	=21
1vi7	A:min7	.	.	.	55.594	.	voice	1A 1cc 1ee 1gg
.	.	I	.	.	.	.	.	.
.	.	do	.	.	.	.	.	.
.	.	be-	.	.	.	.	.	.
.	.	-lieve	.	.	.	.	.	.
.	.	_	.	.	.	.	.	.
.	.	I'm	.	.	.	.	.	.
.	.	_	.	.	.	.	.	.
.	.	_	.	.	.	.	.	.
.	.	fee-	.	.	.	.	.	.
.	.	-ling	.	.	.	.	.	.
=22	=22	=22	=22	=22	=22	=22	=22	=22
*M2/4	*M2/4	*	*	*	*M2/4	*M2/4	*M2/4	*
8.ii7	D:min7	stron-	.	.	58.649	newline	voice	8.D 8.f 8.a 8.cc
.	.	-ger	.	.	.	.	.	.
8.IV7	F:maj7	ev-	.	.	59.402	.	voice	8.F 8.a 8.cc 8.ee
.	.	-'ry-	.	.	.	.	.	.
.	.	-day	.	B	.	.	.	.
.	.	_	.	.	.	.	.	.
8V7	G:7	_	.	.	.	.	voice	8G 8b 8dd 8ff
=23	=23	=23	=23	=23	=23	=23	=23	=23
*M4/4	*M4/4	*	*	*	*M4/4	*M4/4	*M4/4	*
1V7	G:7	_	.	.	60.155	.	voice	1G 1b 1dd 1ff
.	.	.	.	.	.	.	.	.
.	.	.	.	.	.	.	.	.
=24	=24	=24	=24	=24	=24	=24	=24	=24
*>Letter>B	*>Letter>B	*>Letter>B	*>Letter>B	*>Letter>B	*>Letter>B	*>Letter>B	*>Letter>B	*>Letter>B
*>Label>Verse	*>Label>Verse	*>Label>Verse	*>Label>Verse	*>Label>Verse	*>Label>Verse	*>Label>Verse	*>Label>Verse	*>Label>Verse
1I	C:maj	.	.	.	63.166	newline	voice	1C 1e 1g
.	.	I	.	.	.	.	.	.
.	.	_	.	.	.	.	.	.
.	.	know	.	.	.	.	.	.
.	.	we	.	.	.	.	.	.
.	.	real-	.	.	.	.	.	.
.	.	-ly	.	.	.	.	.	.
.	.	tried	.	C	.	.	.	.
.	.	_	.	.	.	.	.	.
.	.	.	.	.	.	.	.	.
.	.	to-	.	.	.	.	.	.
=25	=25	=25	=25	=25	=25	=25	=25	=25
.	.	_	.	.	.	.	.	.
2-III	E-:maj	-ge-	_	.	66.172	.	voice	2E- 2g 2b-
.	.	-ther	.	.	.	.	.	.
.	.	_	.	.	.	.	.	.
.	.	we	.	.	.	.	.	.
.	.	_	.	.	.	.	.	.
.	.	had	.	.	.	.	.	.
.	.	_	.	.	.	.	.	.
.	.	_	.	.	.	.	.	.
.	.	love	.	.	.	.	.	.
2-VII	B-:maj	_	_	.	67.675	.	voice	2B- 2dd 2ff
.	.	_	.	.	.	.	.	.
.	.	in-	.	.	.	.	.	.
.	.	_	.	.	.	.	.	.
.	.	-side	.	C	.	.	.	.
.	.	_	.	.	.	.	.	.
.	.	_	.	.	.	.	.	.
.	.	_	.	.	.	.	.	.
.	.	.	.	.	.	.	.	.
=26	=26	=26	=26	=26	=26	=26	=26	=26
.	.	_	.	.	.	.	.	.
8.-IIIc	E-:maj/5	oh,	.	.	69.178	.	voice	4.e- 4.g 4.B-
.	.	_	.	.	.	.	.	.
8.-VII	B-:maj	.	.	.	69.93	.	voice	8B- 8dd 8ff
.	.	_	.	.	.	.	.	.
8%5IV	F:maj	yeah	.	.	70.681	.	voice	3...F 3...a 3...cc
.	.	_	.	.	.	.	.	.
.	.	.	.	.	.	.	.	.
=27	=27	=27	=27	=27	=27	=27	=27	=27
.	.	_	.	.	.	.	.	.
8.-IIIc	E-:maj/5	Oh,	.	.	72.185	.	voice	4.e- 4.g 4.B-
.	.	_	.	.	.	.	.	.
8.-VII	B-:maj	.	.	.	72.936	.	voice	8B- 8dd 8ff
.	.	_	.	.	.	.	.	.
8%5IV	F:maj	yeah	.	.	73.688	.	voice	3...F 3...a 3...cc
.	.	_	.	.	.	.	.	.
.	.	.	.	.	.	.	.	.
=28	=28	=28	=28	=28	=28	=28	=28	=28
1I	C:maj	.	.	.	75.191	newline	voice	1C 1e 1g
.	.	So	.	.	.	.	.	.
.	.	now	.	.	.	.	.	.
.	.	the	.	.	.	.	.	.
.	.	_	.	.	.	.	.	.
.	.	time	.	.	.	.	.	.
.	.	_	.	.	.	.	.	.
.	.	has	.	.	.	.	.	.
.	.	come	.	D	.	.	.	.
.	.	_	.	.	.	.	.	.
.	.	.	.	.	.	.	.	.
.	.	for	.	.	.	.	.	.
=29	=29	=29	=29	=29	=29	=29	=29	=29
.	.	_	.	.	.	.	.	.
2-III	E-:maj	both	_	.	78.183	.	voice	2E- 2g 2b-
.	.	of	.	.	.	.	.	.
.	.	_	.	.	.	.	.	.
.	.	us	.	.	.	.	.	.
.	.	_	.	.	.	.	.	.
.	.	to	.	.	.	.	.	.
.	.	live	.	.	.	.	.	.
.	.	_	.	.	.	.	.	.
.	.	on	.	.	.	.	.	.
2-VII	B-:maj	_	_	.	79.679	.	voice	2B- 2dd 2ff
.	.	_	.	.	.	.	.	.
.	.	the	.	.	.	.	.	.
.	.	_	.	.	.	.	.	.
.	.	run	.	D	.	.	.	.
.	.	_	.	.	.	.	.	.
.	.	_	.	.	.	.	.	.
.	.	_	.	.	.	.	.	.
.	.	.	.	.	.	.	.	.
=30	=30	=30	=30	=30	=30	=30	=30	=30
.	.	_	.	.	.	.	.	.
8-IIIc	E-:maj/5	oh,	.	.	81.175	.	voice	8e- 8g 8B-
4-VII	B-:maj	_	.	.	81.924	.	voice	4B- 4dd 4ff
.	.	_	.	.	.	.	.	.
8%5IV	F:maj	yeah	.	.	82.672	.	voice	3...F 3...a 3...cc
.	.	_	.	.	.	.	.	.
.	.	.	.	.	.	.	.	.
=31	=31	=31	=31	=31	=31	=31	=31	=31
.	.	_	.	.	.	.	.	.
8-IIIc	E-:maj/5	Oh,	.	.	84.168	.	voice	8e- 8g 8B-
4-VII	B-:maj	_	.	.	84.916	.	voice	4B- 4dd 4ff
.	.	_	.	.	.	.	.	.
8%5IV	F:maj	yeah	.	.	85.664	.	voice	3...F 3...a 3...cc
.	.	_	.	.	.	.	.	.
.	.	.	.	.	.	.	.	.
=32	=32	=32	=32	=32	=32	=32	=32	=32
*>Letter>C	*>Letter>C	*>Letter>C	*>Letter>C	*>Letter>C	*>Letter>C	*>Letter>C	*>Letter>C	*>Letter>C
*>Label>Chorus	*>Label>Chorus	*>Label>Chorus	*>Label>Chorus	*>Label>Chorus	*>Label>Chorus	*>Label>Chorus	*>Label>Chorus	*>Label>Chorus
1vi7	A:min7	.	.	.	87.16	newline	voice	1A 1cc 1ee 1gg
.	.	And	.	.	.	.	.	.
.	.	kno-	.	.	.	.	.	.
.	.	-wing	.	.	.	.	.	.
.	.	that	.	.	.	.	.	.
.	.	_	.	.	.	.	.	.
.	.	_	.	.	.	.	.	.
.	.	you	.	.	.	.	.	.
.	.	would	.	.	.	.	.	.
.	.	_	.	.	.	.	.	.
.	.	have	.	.	.	.	.	.
=33	=33	=33	=33	=33	=33	=33	=33	=33
1ii7	D:min7	wan-	.	.	90.133	.	voice	1D 1f 1a 1cc
.	.	-ted	.	.	.	.	.	.
.	.	it	.	.	.	.	.	.
.	.	_	.	.	.	.	.	.
.	.	this	.	.	.	.	.	.
.	.	way	.	B	.	.	.	.
.	.	_	.	.	.	.	.	.
.	.	.	.	.	.	.	.	.
=34	=34	=34	=34	=34	=34	=34	=34	=34
1vi7	A:min7	.	.	.	93.105	.	voice	1A 1cc 1ee 1gg
.	.	I	.	.	.	.	.	.
.	.	do	.	.	.	.	.	.
.	.	be-	.	.	.	.	.	.
.	.	-lieve	.	.	.	.	.	.
.	.	_	.	.	.	.	.	.
.	.	I'm	.	.	.	.	.	.
.	.	_	.	.	.	.	.	.
.	.	_	.	.	.	.	.	.
.	.	fee-	.	.	.	.	.	.
.	.	-ling	.	.	.	.	.	.
=35	=35	=35	=35	=35	=35	=35	=35	=35
*>Letter>A	*>Letter>A	*>Letter>A	*>Letter>A	*>Letter>A	*>Letter>A	*>Letter>A	*>Letter>A	*>Letter>A
*>Label>Interlude	*>Label>Interlude	*>Label>Interlude	*>Label>Interlude	*>Label>Interlude	*>Label>Interlude	*>Label>Interlude	*>Label>Interlude	*>Label>Interlude
*M2/4	*M2/4	*	*	*	*M2/4	*M2/4	*M2/4	*
8.ii7	D:min7	stron-	.	.	96.078	->newline	voice	8.D 8.f 8.a 8.cc
.	.	-ger	.	.	.	.	.	.
8.IV	F:maj	ev-	.	.	96.826	.	voice	8.F 8.a 8.cc
.	.	-'ry-	.	.	.	.	.	.
.	.	-day	.	B	.	.	.	.
.	.	_	.	.	.	.	.	.
8V	G:maj	_	.	.	.	.	voice	8G 8b 8dd
=36	=36	=36	=36	=36	=36	=36	=36	=36
*M4/4	*M4/4	*	*	*	*M4/4	*M4/4	*M4/4	*
1V	G:maj	_	.	.	97.573	.	voice	1G 1b 1dd
.	.	.	.	.	.	.	.	.
=37	=37	=37	=37	=37	=37	=37	=37	=37
*M2/4	*M2/4	*	*	*	*M2/4	*M2/4	*M2/4	*
8.V	G:maj	Yeah,	.	.	100.563	.	voice	8.G 8.b 8.dd
8.I	C:maj	yeah,	.	.	101.31	.	voice	8.C 8.e 8.g
.	.	_	.	.	.	.	.	.
.	.	_	.	.	.	.	.	.
8IV	F:maj	yeah	.	.	.	.	voice	8F 8a 8cc
=38	=38	=38	=38	=38	=38	=38	=38	=38
*M4/4	*M4/4	*	*	*	*M4/4	*M4/4	*M4/4	*
1IV	F:maj	_	.	.	102.057	.	voice	1F 1a 1cc
.	.	.	.	.	.	.	.	.
=39	=39	=39	=39	=39	=39	=39	=39	=39
*M2/4	*M2/4	*	*	*	*M2/4	*M2/4	*M2/4	*
8.ii7	D:min7	.	.	.	105.047	newline	voice	2D 2f 2a 2cc
8.IV	F:maj	.	.	.	105.796	.	voice	8F 8a 8cc
8V	G:maj	.	.	.	.	.	voice	8G 8b 8dd
=40	=40	=40	=40	=40	=40	=40	=40	=40
*M4/4	*M4/4	*	*	*	*M4/4	*M4/4	*M4/4	*
1V	G:maj	.	.	.	106.546	.	voice	1G 1b 1dd
=41	=41	=41	=41	=41	=41	=41	=41	=41
*M2/4	*M2/4	*	*	*	*M2/4	*M2/4	*M2/4	*
8.V	G:maj	Yeah,	.	.	109.543	.	voice	8.G 8.b 8.dd
8.I	C:maj	yeah,	.	.	110.292	.	voice	8.C 8.e 8.g
.	.	_	.	.	.	.	.	.
.	.	_	.	.	.	.	.	.
8IV	F:maj	yeah	.	.	.	.	voice	8F 8a 8cc
=42	=42	=42	=42	=42	=42	=42	=42	=42
*M4/4	*M4/4	*	*	*	*M4/4	*M4/4	*M4/4	*
1IV	F:maj	_	.	.	111.042	.	voice	1F 1a 1cc
.	.	_	.	.	.	.	.	.
.	.	_	.	.	.	.	.	.
.	.	_	.	.	.	.	.	.
.	.	_	.	.	.	.	.	.
.	.	.	.	.	.	.	.	.
.	.	.	.	.	.	.	.	.
=43	=43	=43	=43	=43	=43	=43	=43	=43
.	.	_	.	.	.	.	.	.
1Im7	C:7	Hah	.	.	114.039	newline	voice	1C 1e 1g 1b
.	.	.	.	.	.	.	.	.
=44	=44	=44	=44	=44	=44	=44	=44	=44
1Im7	C:7	.	.	.	117.022	.	voice	1C 1e 1g 1b
=45	=45	=45	=45	=45	=45	=45	=45	=45
*>Letter>D	*>Letter>D	*>Letter>D	*>Letter>D	*>Letter>D	*>Letter>D	*>Letter>D	*>Letter>D	*>Letter>D
*>Label>Bridge	*>Label>Bridge	*>Label>Bridge	*>Label>Bridge	*>Label>Bridge	*>Label>Bridge	*>Label>Bridge	*>Label>Bridge	*>Label>Bridge
2.V	G:maj	.	.	.	120.005	newline	voice	1G 1b 1dd
4I	C:maj	.	.	.	122.257	.	voice	4C 4e 4g
=46	=46	=46	=46	=46	=46	=46	=46	=46
2.II	D:maj	.	.	.	123.008	.	voice	1D 1f# 1a
4I	C:maj	.	.	.	125.261	.	voice	4C 4e 4g
=47	=47	=47	=47	=47	=47	=47	=47	=47
2.V	G:maj	.	.	.	126.012	.	voice	1G 1b 1dd
4I	C:maj	.	.	.	128.264	.	voice	4C 4e 4g
=48	=48	=48	=48	=48	=48	=48	=48	=48
!!Double Time
*A:	*A:	*	*	*	*	*	*	*A:
1Im7	A:7	.	.	.	129.015	newline	voice	1A 1cc# 1ee 1gg#
=49	=49	=49	=49	=49	=49	=49	=49	=49
1Im7	A:7	.	.	.	132.095	.	voice	1A 1cc# 1ee 1gg#
=50	=50	=50	=50	=50	=50	=50	=50	=50
1Im7	A:7	.	.	.	.	.	voice	1A 1cc# 1ee 1gg#
=51	=51	=51	=51	=51	=51	=51	=51	=51
1Im7	A:7	.	.	.	.	.	voice	1A 1cc# 1ee 1gg#
=52	=52	=52	=52	=52	=52	=52	=52	=52
1Im7	A:7	.	.	.	135.176	newline	voice	1A 1cc# 1ee 1gg#
=53	=53	=53	=53	=53	=53	=53	=53	=53
1Im7	A:7	Af-	.	.	.	.	voice	1A 1cc# 1ee 1gg#
.	.	-ter	.	.	.	.	.	.
.	.	what	.	.	.	.	.	.
.	.	.	.	.	.	.	.	.
.	.	you	.	.	.	.	.	.
.	.	_	.	.	.	.	.	.
.	.	meant	.	.	.	.	.	.
=54	=54	=54	=54	=54	=54	=54	=54	=54
1V7	E:7	.	.	.	138.202	.	voice	1E 1g# 1b 1dd
.	.	_	.	.	.	.	.	.
.	.	to	.	.	.	.	.	.
.	.	me	.	A	.	.	.	.
.	.	_	.	.	.	.	.	.
=55	=55	=55	=55	=55	=55	=55	=55	=55
1V7	E:7	.	.	.	.	.	voice	1E 1g# 1b 1dd
.	.	_	.	.	.	.	.	.
.	.	ooh,	.	.	.	.	.	.
.	.	ba	.	.	.	.	.	.
=56	=56	=56	=56	=56	=56	=56	=56	=56
1II	B:maj	_	.	.	141.229	.	voice	1B 1dd# 1ff#
.	.	by	.	.	.	.	.	.
.	.	_	.	.	.	.	.	.
.	.	now,	.	.	.	.	.	.
.	.	_	.	.	.	.	.	.
.	.	I	.	.	.	.	.	.
=57	=57	=57	=57	=57	=57	=57	=57	=57
1VI	F#:maj	_	.	.	142.742	.	voice	1F# 1a# 1cc#
.	.	can	.	.	.	.	.	.
.	.	make	.	.	.	.	.	.
.	.	_	.	.	.	.	.	.
.	.	it	.	.	.	.	.	.
.	.	_	.	.	.	.	.	.
.	.	ea	.	.	.	.	.	.
=58	=58	=58	=58	=58	=58	=58	=58	=58
1III	C#:maj	_	.	.	144.256	.	voice	1C# 1e# 1g#
.	.	si	.	.	.	.	.	.
.	.	_	.	.	.	.	.	.
.	.	ly	.	A	.	.	.	.
.	.	_	.	.	.	.	.	.
.	.	.	.	.	.	.	.	.
=59	=59	=59	=59	=59	=59	=59	=59	=59
2III	C#:maj	.	Yeah,	.	.	.	voice	2C# 2e# 2g#
2II	B:maj	.	yeah,	.	146.526	.	voice	2B 2dd# 2ff#
=60	=60	=60	=60	=60	=60	=60	=60	=60
1Im7	A:7	.	yeah	.	147.282	newline	voice	1A 1cc# 1ee 1gg#
=61	=61	=61	=61	=61	=61	=61	=61	=61
1Im7	A:7	I	_	.	.	.	voice	1A 1cc# 1ee 1gg#
.	.	know	.	.	.	.	.	.
.	.	that	.	.	.	.	.	.
.	.	_	.	.	.	.	.	.
.	.	we	.	.	.	.	.	.
.	.	_	.	.	.	.	.	.
.	.	both	.	.	.	.	.	.
=62	=62	=62	=62	=62	=62	=62	=62	=62
1V7	E:7	_	_	.	150.26	.	voice	1E 1g# 1b 1dd
.	.	_	.	.	.	.	.	.
.	.	a-	.	.	.	.	.	.
.	.	-gree	.	A	.	.	.	.
.	.	_	.	.	.	.	.	.
.	.	.	.	.	.	.	.	.
=63	=63	=63	=63	=63	=63	=63	=63	=63
1V7	E:7	best	_	.	.	.	voice	1E 1g# 1b 1dd
.	.	thing	.	.	.	.	.	.
.	.	to	.	.	.	.	.	.
.	.	hap-	_	.	.	.	.	.
.	.	-pen	.	.	.	.	.	.
.	.	to	.	.	.	.	.	.
.	.	_	.	.	.	.	.	.
.	.	you	.	.	.	.	.	.
=64	=64	=64	=64	=64	=64	=64	=64	=64
1II	B:maj	_	_	.	153.238	.	voice	1B 1dd# 1ff#
.	.	_	.	.	.	.	.	.
.	.	.	.	.	.	.	.	.
.	.	.	.	.	.	.	.	.
.	.	the	.	.	.	.	.	.
=65	=65	=65	=65	=65	=65	=65	=65	=65
1VI	F#:maj	best	_	.	154.726	.	voice	1F# 1a# 1cc#
.	.	thing	.	.	.	.	.	.
.	.	to	.	.	.	.	.	.
.	.	hap-	.	.	.	.	.	.
.	.	-pen	.	.	.	.	.	.
.	.	to	.	.	.	.	.	.
.	.	me,	.	A	.	.	.	.
=66	=66	=66	=66	=66	=66	=66	=66	=66
*	*	*	*	*	*	*	*	*
1III	C#:maj	_	.	.	156.215	.	voice	1C# 1e# 1g#
.	.	_	.	.	.	.	.	.
.	.	_	.	.	.	.	.	.
.	.	y-	.	.	.	.	.	.
=67	=67	=67	=67	=67	=67	=67	=67	=67
2III	C#:maj	-yeah,	Yeah,	.	.	.	voice	2C# 2e# 2g#
.	.	y-	.	.	.	.	.	.
2II	B:maj	-yeah,	yeah,	.	158.448	.	voice	2B 2dd# 2ff#
.	.	y...	.	.	.	.	.	.
=68	=68	=68	=68	=68	=68	=68	=68	=68
*>Letter>E	*>Letter>E	*>Letter>E	*>Letter>E	*>Letter>E	*>Letter>E	*>Letter>E	*>Letter>E	*>Letter>E
*>Label>Outro	*>Label>Outro	*>Label>Outro	*>Label>Outro	*>Label>Outro	*>Label>Outro	*>Label>Outro	*>Label>Outro	*>Label>Outro
*B:	*B:	*	*	*	*	*	*	*B:
1-VII	A:maj	.	yeah!	.	159.193	newline	.	1A 1cc# 1ee
.	.	.	.	.	.	.	.	.
=69	=69	=69	=69	=69	=69	=69	=69	=69
1IV	E:maj	.	.	.	160.697	.	.	1E 1g# 1b
=70	=70	=70	=70	=70	=70	=70	=70	=70
1Im7	B:7	.	.	.	162.202	.	.	1B 1dd# 1ff# 1aa#
=71	=71	=71	=71	=71	=71	=71	=71	=71
1Im7	B:7	.	.	.	.	.	.	1B 1dd# 1ff# 1aa#
=72	=72	=72	=72	=72	=72	=72	=72	=72
1-VII	A:maj	.	.	.	165.21	.	.	1A 1cc# 1ee
=73	=73	=73	=73	=73	=73	=73	=73	=73
1IV	E:maj	.	.	.	166.715	.	.	1E 1g# 1b
=74	=74	=74	=74	=74	=74	=74	=74	=74
1Im7	B:7	.	Wow	.	168.219	.	.	1B 1dd# 1ff# 1aa#
.	.	.	_	.	.	.	.	.
.	.	.	.	.	.	.	.	.
=75	=75	=75	=75	=75	=75	=75	=75	=75
1Im7	B:7	.	.	.	.	.	.	1B 1dd# 1ff# 1aa#
=76	=76	=76	=76	=76	=76	=76	=76	=76
1-VII	A:maj	.	.	.	171.228	newline	.	1A 1cc# 1ee
=77	=77	=77	=77	=77	=77	=77	=77	=77
1IV	E:maj	.	.	.	172.696	.	.	1E 1g# 1b
=78	=78	=78	=78	=78	=78	=78	=78	=78
1Im7	B:7	.	Wow	.	174.165	.	.	1B 1dd# 1ff# 1aa#
.	.	.	_	.	.	.	.	.
.	.	.	.	.	.	.	.	.
=79	=79	=79	=79	=79	=79	=79	=79	=79
1Im7	B:7	.	.	.	.	.	.	1B 1dd# 1ff# 1aa#
=80	=80	=80	=80	=80	=80	=80	=80	=80
1-VII	A:maj	.	.	.	177.101	.	.	1A 1cc# 1ee
=81	=81	=81	=81	=81	=81	=81	=81	=81
1IV	E:maj	.	.	.	178.569	.	.	1E 1g# 1b
=82	=82	=82	=82	=82	=82	=82	=82	=82
1Im7	B:7	.	Wow	.	180.037	.	.	1B 1dd# 1ff# 1aa#
.	.	.	_	.	.	.	.	.
.	.	.	.	.	.	.	.	.
=83	=83	=83	=83	=83	=83	=83	=83	=83
1Im7	B:7	.	.	.	.	.	.	1B 1dd# 1ff# 1aa#
=84	=84	=84	=84	=84	=84	=84	=84	=84
*	*	*	*	*	*	*	*	*
1-VII	A:maj	.	.	.	182.973	newline	.	1A 1cc# 1ee
.	.	Fee-	Fee-	.	.	.	.	.
.	.	-lin'	-lin'	.	.	.	.	.
=85	=85	=85	=85	=85	=85	=85	=85	=85
1IV	E:maj	stron-	stron-	.	184.437	.	.	1E 1g# 1b
.	.	-ger	-ger	.	.	.	.	.
.	.	ev-	ev-	.	.	.	.	.
.	.	-'ry-	-'ry-	.	.	.	.	.
.	.	-day	-day	.	.	.	.	.
=86	=86	=86	=86	=86	=86	=86	=86	=86
1Im7	B:7	_	_	.	185.901	.	.	1B 1dd# 1ff# 1aa#
=87	=87	=87	=87	=87	=87	=87	=87	=87
1Im7	B:7	_	_	.	.	.	.	1B 1dd# 1ff# 1aa#
.	.	_	_	.	.	.	.	.
.	.	.	.	.	.	.	.	.
=88	=88	=88	=88	=88	=88	=88	=88	=88
1-VII	A:maj	.	.	.	188.828	.	.	1A 1cc# 1ee
.	.	Fee-	Fee-	.	.	.	.	.
.	.	-lin'	-lin'	.	.	.	.	.
=89	=89	=89	=89	=89	=89	=89	=89	=89
1IV	E:maj	stron-	stron-	.	190.292	.	.	1E 1g# 1b
.	.	-ger	-ger	.	.	.	.	.
.	.	ev-	ev-	.	.	.	.	.
.	.	-'ry-	-'ry-	.	.	.	.	.
.	.	-day	-day	.	.	.	.	.
=90	=90	=90	=90	=90	=90	=90	=90	=90
1Im7	B:7	_	_	.	191.755	.	.	1B 1dd# 1ff# 1aa#
=91	=91	=91	=91	=91	=91	=91	=91	=91
1Im7	B:7	_	_	.	.	.	.	1B 1dd# 1ff# 1aa#
.	.	_	_	.	.	.	.	.
.	.	.	.	.	.	.	.	.
=92	=92	=92	=92	=92	=92	=92	=92	=92
1-VII	A:maj	.	.	.	194.683	newline	.	1A 1cc# 1ee
.	.	.	Fee-	.	.	.	.	.
.	.	.	-lin'	.	.	.	.	.
=93	=93	=93	=93	=93	=93	=93	=93	=93
1IV	E:maj	.	stron-	.	196.172	.	.	1E 1g# 1b
.	.	.	-ger	.	.	.	.	.
.	.	.	ev-	.	.	.	.	.
.	.	.	-'ry-	.	.	.	.	.
.	.	.	-day	.	.	.	.	.
=94	=94	=94	=94	=94	=94	=94	=94	=94
1Im7	B:7	.	_	.	197.66	.	.	1B 1dd# 1ff# 1aa#
=95	=95	=95	=95	=95	=95	=95	=95	=95
1Im7	B:7	(vocalizing)	_	.	.	.	.	1B 1dd# 1ff# 1aa#
.	.	_	.	.	.	.	.	.
.	.	_	.	.	.	.	.	.
.	.	_	.	.	.	.	.	.
.	.	.	_	.	.	.	.	.
.	.	_	.	.	.	.	.	.
.	.	_	.	.	.	.	.	.
=96	=96	=96	=96	=96	=96	=96	=96	=96
1-VII	A:maj	_	.	.	200.638	.	.	1A 1cc# 1ee
.	.	.	Fee-	.	.	.	.	.
.	.	.	-lin'	.	.	.	.	.
=97	=97	=97	=97	=97	=97	=97	=97	=97
1IV	E:maj	.	stron-	.	202.126	.	.	1E 1g# 1b
.	.	.	-ger	.	.	.	.	.
.	.	.	ev-	.	.	.	.	.
.	.	.	-'ry-	.	.	.	.	.
.	.	.	-day	.	.	.	.	.
=98	=98	=98	=98	=98	=98	=98	=98	=98
1Im7	B:7	.	_	.	203.615	.	.	1B 1dd# 1ff# 1aa#
=99	=99	=99	=99	=99	=99	=99	=99	=99
1Im7	B:7	(vocalizing)	_	.	.	.	.	1B 1dd# 1ff# 1aa#
.	.	_	.	.	.	.	.	.
.	.	_	.	.	.	.	.	.
.	.	_	.	.	.	.	.	.
.	.	.	_	.	.	.	.	.
.	.	_	.	.	.	.	.	.
.	.	_	.	.	.	.	.	.
=100	=100	=100	=100	=100	=100	=100	=100	=100
1-VII	A:maj	_	.	.	206.593	newline	.	1A 1cc# 1ee
.	.	.	Fee-	.	.	.	.	.
.	.	.	-lin'	.	.	.	.	.
=101	=101	=101	=101	=101	=101	=101	=101	=101
1IV	E:maj	.	stron-	.	208.067	.	.	1E 1g# 1b
.	.	.	-ger	.	.	.	.	.
.	.	.	ev-	.	.	.	.	.
.	.	.	-'ry-	.	.	.	.	.
.	.	.	-day	.	.	.	.	.
=102	=102	=102	=102	=102	=102	=102	=102	=102
1Im7	B:7	.	_	.	209.542	.	.	1B 1dd# 1ff# 1aa#
=103	=103	=103	=103	=103	=103	=103	=103	=103
1Im7	B:7	(vocalizing)	_	.	.	.	.	1B 1dd# 1ff# 1aa#
.	.	_	.	.	.	.	.	.
.	.	_	.	.	.	.	.	.
.	.	_	.	.	.	.	.	.
.	.	.	_	.	.	.	.	.
.	.	_	.	.	.	.	.	.
.	.	_	.	.	.	.	.	.
=104	=104	=104	=104	=104	=104	=104	=104	=104
1-VII	A:maj	_	.	.	212.492	.	.	1A 1cc# 1ee
.	.	.	Fee-	.	.	.	.	.
.	.	.	-lin'	.	.	.	.	.
=105	=105	=105	=105	=105	=105	=105	=105	=105
1IV	E:maj	.	stron-	.	213.966	.	.	1E 1g# 1b
.	.	.	-ger	.	.	.	.	.
.	.	.	ev-	.	.	.	.	.
.	.	.	-'ry-	.	.	.	.	.
.	.	.	-day	.	.	.	.	.
=106	=106	=106	=106	=106	=106	=106	=106	=106
1Im7	B:7	.	_	.	215.441	.	.	1B 1dd# 1ff# 1aa#
=107	=107	=107	=107	=107	=107	=107	=107	=107
1Im7	B:7	(vocalizing)	_	.	.	.	.	1B 1dd# 1ff# 1aa#
.	.	_	.	.	.	.	.	.
.	.	_	.	.	.	.	.	.
.	.	_	.	.	.	.	.	.
.	.	.	_	.	.	.	.	.
.	.	_	.	.	.	.	.	.
.	.	_	.	.	.	.	.	.
=108	=108	=108	=108	=108	=108	=108	=108	=108
1-VII	A:maj	_	.	.	218.39	newline	.	1A 1cc# 1ee
.	.	.	Fee-	.	.	.	.	.
.	.	.	-lin'	.	.	.	.	.
=109	=109	=109	=109	=109	=109	=109	=109	=109
1IV	E:maj	.	stron-	.	219.882	.	.	1E 1g# 1b
.	.	.	-ger	.	.	.	.	.
.	.	.	ev-	.	.	.	.	.
.	.	.	-'ry-	.	.	.	.	.
.	.	.	-day	.	.	.	.	.
=110	=110	=110	=110	=110	=110	=110	=110	=110
1Im7	B:7	.	_	.	221.373	.	.	1B 1dd# 1ff# 1aa#
=111	=111	=111	=111	=111	=111	=111	=111	=111
1Im7	B:7	(vocalizing)	_	.	.	.	.	1B 1dd# 1ff# 1aa#
.	.	_	.	.	.	.	.	.
.	.	_	.	.	.	.	.	.
.	.	_	.	.	.	.	.	.
.	.	.	_	.	.	.	.	.
.	.	_	.	.	.	.	.	.
.	.	_	.	.	.	.	.	.
=112	=112	=112	=112	=112	=112	=112	=112	=112
1-VII	A:maj	_	.	.	224.356	.	.	1A 1cc# 1ee
.	.	.	Fee-	.	.	.	.	.
.	.	.	-lin'	.	.	.	.	.
=113	=113	=113	=113	=113	=113	=113	=113	=113
1IV	E:maj	.	stron-	.	225.848	.	.	1E 1g# 1b
.	.	.	-ger	.	.	.	.	.
.	.	.	ev-	.	.	.	.	.
.	.	.	-'ry-	.	.	.	.	.
.	.	.	-day	.	.	.	.	.
=114	=114	=114	=114	=114	=114	=114	=114	=114
1Im7	B:7	.	_	.	227.339	.	.	1B 1dd# 1ff# 1aa#
=115	=115	=115	=115	=115	=115	=115	=115	=115
1Im7	B:7	(vocalizing)	_	.	.	.	.	1B 1dd# 1ff# 1aa#
.	.	_	.	.	.	.	.	.
.	.	_	.	.	.	.	.	.
.	.	_	.	.	.	.	.	.
.	.	.	_	.	.	.	.	.
.	.	_	.	.	.	.	.	.
.	.	_	.	.	.	.	.	.
=116	=116	=116	=116	=116	=116	=116	=116	=116
*>Label>>Fadeout	*>Label>>Fadeout	*>Label>>Fadeout	*>Label>>Fadeout	*>Label>>Fadeout	*>Label>>Fadeout	*>Label>>Fadeout	*>Label>>Fadeout	*>Label>>Fadeout
1-VII	A:maj	_	.	.	230.322	newline	.	1A 1cc# 1ee
.	.	.	Fee-	.	.	.	.	.
.	.	.	-lin'	.	.	.	.	.
=117	=117	=117	=117	=117	=117	=117	=117	=117
1IV	E:maj	.	stron-	.	231.802	.	.	1E 1g# 1b
.	.	.	-ger	.	.	.	.	.
.	.	.	ev-	.	.	.	.	.
.	.	.	-'ry-	.	.	.	.	.
.	.	.	-day	.	.	.	.	.
=118	=118	=118	=118	=118	=118	=118	=118	=118
1Im7	B:7	.	_	.	233.281	.	.	1B 1dd# 1ff# 1aa#
=119	=119	=119	=119	=119	=119	=119	=119	=119
1Im7	B:7	(vocalizing)	_	.	.	.	.	1B 1dd# 1ff# 1aa#
.	.	_	.	.	.	.	.	.
.	.	_	.	.	.	.	.	.
.	.	_	.	.	.	.	.	.
.	.	.	_	.	.	.	.	.
.	.	_	.	.	.	.	.	.
.	.	_	.	.	.	.	.	.
=120	=120	=120	=120	=120	=120	=120	=120	=120
1-VII	A:maj	_	.	.	236.241	.	.	1A 1cc# 1ee
.	.	.	Fee-	.	.	.	.	.
.	.	.	-lin'	.	.	.	.	.
=121	=121	=121	=121	=121	=121	=121	=121	=121
1IV	E:maj	.	stron-	.	237.721	.	.	1E 1g# 1b
.	.	.	-ger	.	.	.	.	.
.	.	.	ev-	.	.	.	.	.
.	.	.	-'ry-	.	.	.	.	.
.	.	.	-day	.	.	.	.	.
=122	=122	=122	=122	=122	=122	=122	=122	=122
1Im7	B:7	.	_	.	239.201	.	.	1B 1dd# 1ff# 1aa#
=123	=123	=123	=123	=123	=123	=123	=123	=123
1Im7	B:7	(vocalizing)	_	.	.	.	.	1B 1dd# 1ff# 1aa#
.	.	_	.	.	.	.	.	.
.	.	_	.	.	.	.	.	.
.	.	_	.	.	.	.	.	.
.	.	.	_	.	.	.	.	.
.	.	_	.	.	.	.	.	.
.	.	_	.	.	.	.	.	.
=124	=124	=124	=124	=124	=124	=124	=124	=124
1-VII	A:maj	_	.	.	242.16	newline	.	1A 1cc# 1ee
.	.	.	Fee-	.	.	.	.	.
.	.	.	-lin'	.	.	.	.	.
=125	=125	=125	=125	=125	=125	=125	=125	=125
1IV	E:maj	.	stron-	.	243.362	.	.	1E 1g# 1b
.	.	.	-ger	.	.	.	.	.
.	.	.	ev-	.	.	.	.	.
.	.	.	-'ry-	.	.	.	.	.
.	.	.	-day	.	.	.	.	.
=126	=126	=126	=126	=126	=126	=126	=126	=126
1Im7	B:7	.	_	.	244.564	.	.	1B 1dd# 1ff# 1aa#
=127	=127	=127	=127	=127	=127	=127	=127	=127
1Im7	B:7	(vocalizing)	_	.	.	.	.	1B 1dd# 1ff# 1aa#
.	.	_	.	.	.	.	.	.
.	.	_	.	.	.	.	.	.
.	.	_	.	.	.	.	.	.
.	.	.	_	.	.	.	.	.
.	.	_	.	.	.	.	.	.
.	.	_	.	.	.	.	.	.
=128	=128	=128	=128	=128	=128	=128	=128	=128
1-VII	A:maj	.	.	.	246.967	.	.	1A 1cc# 1ee
.	.	.	Fee-	.	.	.	.	.
.	.	.	-lin'	.	.	.	.	.
=129	=129	=129	=129	=129	=129	=129	=129	=129
1IV	E:maj	.	stron-	.	248.169	.	.	1E 1g# 1b
.	.	.	-ger	.	.	.	.	.
.	.	.	ev-	.	.	.	.	.
.	.	.	-'ry-	.	.	.	.	.
.	.	.	-day	.	.	.	.	.
=130	=130	=130	=130	=130	=130	=130	=130	=130
1Im7	B:7	.	_	.	249.37	.	.	1B 1dd# 1ff# 1aa#
=131	=131	=131	=131	=131	=131	=131	=131	=131
1Im7	B:7	.	_	.	.	.	.	1B 1dd# 1ff# 1aa#
.	.	.	_	.	.	.	.	.
.	.	.	.	.	.	.	.	.
1r;	N	.	.	.	251.774	.	r	1r;
1r;	N	.	.	.	253.91	.	r	1r;
*-	*-	*-	*-	*-	*-	*-	*-	*-
!!!BillboardChartDate: 1973/08/25, 1973/08/11
!!!BillboardPeak: 10, 10
!!!BillboardWeeksOnChart: 16, 16
!!!COC: Chicago
!!!EMD: Need to listen to song, there are clearly key changes missing. -Nat
!!!ENC: Nathaniel Condit-Schultz
!!!EST: Awating manual error checking and editing.
!!!OTL: Feelin' Stronger Every Day
!!!RDF**harte: Chris Harte's syntax, used by MIREX
!!!RDF**harmony: **recip + pitch class of root + harmonic quality
!!!RDF**leadinstrument: original McGill primary instrumentation annotation
!!!RDF**phrase: newline = linebreak in original McGill transcription
!!!RDF**timestamp: McGill audio timestamp in seconds
!!!RDT: 2017/01/12/
!!!SampleActualRank: 11, 11
!!!SampleID#: 366, 684
!!!SampleTargetRank: 9, 11
!!!MBID: 6765530c-766a-4e8c-85ef-bb9278605515
